X:10
T:Illinois
H:This song included the note, "Used by permission of Clayton F. Summy Co., Owners of the Copyright."
C:Words by C. H. Chamberlain/Air: "Baby Mine"
%%NoDecos 5 yes
%%NoDecos 2 no
%%staffsep 30pt
%%LineSep 30pt
%%titlespace 40pt
%%textspace 10pt
S:Source "The One Hundred and One Best Songs" - The Cable Company - 1919 - Chicago, Illinois
M:4/4
L:1/8
Q:1/4=110
%%staves [(1) (2 3) (4 5)]
K:F
V:1 clef=treble
A B | c A G F A F D > C |
w:1.~By thy riv-ers gen-tly flow-ing, Il-li\-
w:2.~From a wil-der-ness of prai-ries, Il-li\-
w:3.~When you heard your coun-try call-ing, Il-li\-
w:4.~Not with-out thy won-drous sto-ry, Il-li\-
V:2 clef=treble
z2 | F2 F2 F2 F2 |
V:3 clef=treble
z2 | A,2 A,2 A,2 B,2 |
V:4 clef=bass
%%MIDI transpose -24
z2 | c2 c2 c2 d2 |
V:5 clef=bass
%%MIDI transpose -24
z2 | F2 F2 F2 B2 |
V:1
F2 F > G F2 A B | c A G F A F D > C |
w:nois, Il-li-nois, O'er thy prai-ries ver-dant grow-ing, Il-li\-
w:nois, Il-li-nois, Straight thy way and nev-er va-ries, Il-li\-
w:nois, Il-li-nois, Where the shot and shell were fall-ing, Il-li\-
w:nois, Il-li-nois, Can be writ the na-tion's glo-ry, Il-li\-
V:2
F2 F>G F2 z2 | F2 F2 F2 D>C |
V:3
A,2 B,2 A,2 z2 | A,2 A,2 A,2 A,2 |
V:4
c2 d2 c2 z2 | c2 c2 c2 f2 |
V:5
F2 F2 F2 z2 | F2 F2 F2 F2 |
V:1
G2 G > A G2 A B | c A d B c2 A B |
w:nois, Il-li-nois, Comes an ech-o on the breeze, Rus-tling
w:nois, Il-li-nois, Till up-on the in-land sea Stands Chi\-
w:nois, Il-li-nois, When the South-ern host with-drew, Pit-ting
w:nois, Il-li-nois, On the rec-ord of thy years, A-bra'am
V:2
G2 G>A G2 AB | c2 d2 c2 AB |
V:3
=B,2 =B,2 C2 F2 | F2 F2 F2 F2 |
V:4
f2 f>f e2 c'b | a2 b2 a2 c'b |
V:5
G2 G>G c2 f2 | f2 f2 f2 f2 |
V:1
c A d B c2 A B | c A G F (AF) D > C |
w:thro' the leaf-y trees, And its mel-low tones are these,* Il-li\-
w:ca-go, great and free, Turn-ing all the world to thee,* Il-li\-
w:Gray a-gainst the Blue, There were none more brave than you,* Il-li\-
w:Lin-coln's name ap-pears, Grant, and Lo-gan, and our tears,* Il-li\-
V:2
c2 d2 c2 z2 | F2 F2 F2 F2 |
V:3
F2 F2 F2 z2 | A,2 A,2 A,2 B,2 |
V:4
a2 b2 a2 z2 | c2 c2 c2 d2 |
V:5
f2 f2 f2 z2 | F2 F2 F2 B2 |
V:1
F2 F > G A2 A B | c f e d (cA) G > F | F6 |]
w:nois, Il-li-nois, And its mel-low tones are these,* Il-li-nois!
w:nois, Il-li-nois, Turn-ing all the world to thee,* Il-li-nois!
w:nois, Il-li-nois, There were none more brave than you,* Il-li-nois!
w:nois, Il-li-nois, Grant, and Lo-gan, and our tears,* Il-li-nois!
V:2
F2 F>G A2 AB | cf ed [cA]A [G3/2E]F/ | F6 |]
V:3
A,2 C2 F2 FE | F2 F2 FF [C3/2B,][C/A,] | [C6A,] |]
V:4
c2 a>b c'2 c'c' | c'2 d'2 c'2 c2 | f6 |]
V:5
F2 f2 f2 fg | a2 b2 c2 C2 | F6 |]
W:5 When the Cubans struck for freedom, Illinois, Illinois,
W:  Uncle Sam resolved to aid them, Illinois, Illinois,
W:  And for men on land and sea,
W:  Illinois said, "Call on me!
W:  For the Cubans must be free!" Illinois, Illinois,
W:  For the Cubans must be free, Illinois!
W:6 Some encamped at Chickamanga, Illinois, Illinois,
W:  Others fell at Santiago, Illinois, Illinois,
W:  Others, anxious for a call,
W:  They will march, or fight, or fall,
W:  They are heroes, heroes, all, Illinois, Illinois,
W:  They are heroes, heroes, all, Illinois!

